X:22
T:Le fou du roi
R:
N:tagafolk.abc
O:France
Z:<anamnese@laposte.net>
M:3/4
L:1/4
Q:3/4=130
K:F
V:1
z2 | A4 c2 | f2 A2 c2 | d2 B2 d2 | c2 A2 c2 |
B2 c2 B2 | A2 d2 c2 | B2 c2 B2 | A2 A2 F2 | BB BB BB |
A2A2A2 | G2G2G2 | A4F2 |
V:2
cc | F2F2 AA | F2 F2 FF | F2F2 FF | F2F2 EF |
G2G2 GG | F2F2 AA | G2G2 CC | F2F2F2 | DE FG FD |
C2 D2 D2 | E2 D2 E2 | F4 F2 |
